!!key: tele-40-09-Fan-All-03-Flute
!!!COM: Telemann, Georg Philipp
!!!CDT: 1681/03/14-1767/06/25
!!!CBL: Magdeburg
!!!CDL: Hamburg
!!!CNT: German
!!!TWV: 40:9
!!!TWV-genre: 40
!!!TWV-work: 9
!!!OPR: 12 Fantasias for transverse flute without bass
!!!OTL: Fantasia 8
!!!OMD: Allegro
!!!OMV: 3
!!!ODT: ca. 1732–1733
!!!AST: Late Baroque
!!!AGN: Fantasia
!!!AMT: Simple triple
!!!AIN: Transverse flute
**kern
*ICww
*Iflt
*clefG2
*k[f#]
*e:
*M3/4
=1
8b
4cc
8a
4dd
=2
8g
4a
8f#
4b
=3
8e
4ee
16ddL
16ccJ
8bL
8aJ
=4
8gL
[8eJ
16e]L
16f#
16g
16aJ
8bL
8eJ
=5
8b
4cc
8a
4dd
=6
8g
4a
8f#
4b
!!LO:LB:g=original
=7
8e
4ee
16ddL
16ccJ
8bL
8aJ
=8
8gL
8ggJ
4g
4r
=9:||:
8bL
[8gJ
16g]\L
16a
16b
16cc#XJ
8ddL
16ee
16cc#J
=10
8ddL
[8aJ
16a]L
16b
16cc#X
16ddJ
8eeL
8aJ
=11
8ff#
4bb
4aa
[8gg
=12
8gg]L
16ff#
16eeJ
8ff#L
16dd
16cc#XJ
8ddL
8dJ
!!LO:LB:g=original
=13
8cc#X
4ff#
8eeL
8cc#
8eeJ
=14
8a#X
4ff#
4ee
16ddL
16cc#XJ
=15
8ddL
16cc#X
16ddJ
8bL
8cc#J
8f#L
8a#XJ
=16
8bL
8bbJ
4b
8r
8an
=17
8g#XL
16dd
16cc#XJ
16ddL
16cc#
8ddJ
8eL
8ddJ
=18
8aL
16cc#X
16bJ
8cc#L
8a
8cc#
8eeJ
!!LO:LB:g=original
=19
8a#XL
16ee
16dd#XJ
16eeL
16dd#
8eeJ
8f#L
8eeJ
=20
8bL
16dd#X
16cc#XJ
8dd#L
8b
8dd#
8ff#J
=21
8b
4ccn
8a
4ddn
=22
8g
4a
8f#
4b
=23
8e
4ee
16bL
16aJ
8gL
8f#J
=24
8eL
8eeJ
4e
4r
==:|
*-
!!!RTL1: G. PH. Telemann: Twelve Fantasias for Flute without Bass TWV 40:2-13
!!!RPN1: D'Arcangelo, Rita
!!!RMM1: Da Vinci Classics
!!!RC#1: DV-C00440
!!!RRD1: 2022
!!!RLC1: Andreaskirche, Berlin, Germany
!!!RDT1: 16 September 2020, 17 September 2020
!!!RT#1: 8
!!!RTL2: The Telemann Files: 12 Fantasies for Solo Flute
!!!RPN2: Choi, Jasmine
!!!RMM2: Austrian Gramophone
!!!RC#2: AG0001
!!!RRD2: February 2015
!!!RLC2: LeFrak Hall, Queens, USA
!!!RDT2: 9 June 2014, 10 June 2014
!!!RT#2: 8
!!!RTL3: Georg Philipp Telemann: Twelve Fantasies for Flute
!!!RPN3: Robertello, Thomas
!!!RMM3: Delos
!!!RC#3: DE3396
!!!RRD3: 1 June 2009
!!!RLC3: Clear Creek Recording, Keene, California
!!!RDT3: Unknown
!!!RT#3: 8
